X:0
T:Banks of Sweet Primroses
F:http//vwml.org/record/PG/19/2/13/0
S:William Hilton (Keelby)
N:MS alternative title "As I walked out one midsummer's morning"
Z:Transcribed by Ruairidh Greig Dec 2013
M:3/4
L:1/8
K:G
D|GG G3 G|BA/A/ G2HDB|ccd3G|G>GA3G|!
Ae d3G|(3GBA (GD) HD A|GDG3d/c/|BAG3||

